X: 69
T:the Terror of Death
S:Daniel Dow, Ancient Scottish Music
T:s eagal leam a mbas
C:by Rorie Dall
M:3/4
L:1/8
Q:1/4=100
K:AMin
d|d>c (d/c/d/e/) f2|eAAA A2|dGGG  G2| cFFF          F2|
  GFEE           E2|DEFG A2|G3   EDC|(C/D/E/F/) A A,3 |
  d>c (d/c/d/e/) f2|adaa a2|gcgg  g2| agff          f2|
  gfee           e2|defg a2|g3   edc|(c/d/e/g/) a A2 ||
A-| AG        A/B/c/B/ A2|GAcA             G2             |(FGAG)           F2|
({F}E2)   ({G}F2)      A2|G2F2             E2             | DA,           D3 E|
   (F/D/E/C/) D3        A|A2   (A/G/F/E/) (D/E/F/G/)      | A2            E2E2|
   (E/F/G/F/) E2       E2|F>GFE          (3D/E/F/ (3G/A/B/| c2            G2G2|
    GAcA               G2|FGAB             c2             | GFEE            E2|
    DEFG               A2|G3              EDC             | C/D/ (3E/G/A/ A,3|]

A familiar hymn tune (possibly mediaeval words, but the tune
can't be traced to before 1853, so it's not as old as it seems):

